X:1
T:Waiting for the Hammer to Fall
C:© 1999 Harry Bolick -  harry@bolick.net - www.bolick.net
R:Breakdown
O:United States
A:Brooklyn, New York
M:4/4
L:1/8
Q:350
K:Bb
z |: "Cm" C2 C2 ED C2 | E2 E2 "Eb" B4 | e2 z f gf e2 |1 "Cm" cBAB cB A G/2E/2 :|2 "Cm" cBAB c2 c z|cBAB c2 c2 ||
K:C
|: "C" e2 e4 e2 "G"| d2 ed  "C" c4 | "G" (BA) (AB) "C" c z  cc| "G" (BA) (AB) "C" c3 z |
"C" e2 e4 e2 "G"| d2 ed  "C" c4 | "G" (BA) (AB) "C" c z  cc| "G" (BA) (AB) "C" c3 z  | cB AB c2 c z :|
